X:1
T:12 Lieder, 1786   (alternative title: Zwölf Lieder auf ihrer Reise in Musik gesetzt)
T:An das Klavier
T:1. An das Klavier
T:Maria Theresia von Paradis
T:12 Lieder, 1786 (Zwölf Lieder auf ihrer Reise in Musik gesetzt) 
T:Johann Timotheus Hermes
T:NOTE TO TRANSCRIBER: Please transcribe the notes as shown in the IMSLP edition, into the piano's Soprano clef stave shown on this template score. During review, any corrections will be made in the Soprano clef staves.  The reviewer will then copy the notes into the hidden Treble clef staves, reveal the Treble clef staves and hide the Soprano clef staves before the score is published to the  OpenScore Lieder Corpus. 
T:Creative Commons copyright waiver (CC0 1.0 Universal)
T:Creative Commons copyright waiver (CC0 1.0 Universal)
C:Maria Theresia von Paradis
Z:Johann Timotheus Hermes
Z:Creative Commons copyright waiver (CC0 1.0 Universal)
%%score 1 { 2 3 }
L:1/8
M:2/4
K:C
V:1 alto1 nm="Voice\n(Soprano clef)"
V:2 alto1 nm="\n\n\n\n\n\n\nPianoforte"
V:3 bass nm="Pianoforte"
V:1
"^A3" A,"^B3"B,"^C4" C"^D4"D |"^E4" E"^F4"F"^G4" G"^A4"A |"^B4" B"^C5"c"^D5" d"^E5"e | %3
w: |||
"^F5" f"^G5"g"^A5" a z |[K:Eb][Q:1/4=68]"^Adagio" B2 c3/2 d/ | d/>f/e z B | BA/ A/ A/B/4c/4B/ A/ | %7
w: |Sei mir ge-|grüsst * * mein|schmei- * cheln- des * * * Kla-|
{A} G2 z B/>g/ | g3/2 B/ B3/2 _d/4c/4 | BA3/4 f/4 f3/2 A/ | A/G/ A/B/ c/B/ A/G/ |{G} F2 z A/F/ | %12
w: vier, was *|kei- ne Spra- che *|rich- * tig  denkt, die|Krank- * heit * tief * in *|mir, was *|
 E/D/ c/B/ B/A/ f/e/ | (e d2) e | d3/4 c/4 c z c | (B/>A/ G2) G/4F/4E/4F/4 | E2 z2 | z4 | z4 |] %19
w: nie * mein * Mund * be- *|kennt, * dies|klag ich dir, dies|klag _ _ ich * * *|dir!|||
V:2
 z4 | z4 | z4 | z4 |[K:Eb]"^\n(Soprano clef)\n" [GB]2 z2 | z4 | z4 | z4 | [Bg]>[GB] z2 | z4 | z4 | %11
 z4 | E/D/ c/B/ z/ z/ z/ z/ | z4 | z4 | z4 | E/4G/4B/4G/4 z z z | z4 | z4 |] %19
V:3
 z4 | z4 | z4 | z4 |[K:Eb]"^(Bass clef)" [E,,E,][E,,E,] [E,,E,][E,,E,] | z4 | z4 | z4 | %8
 [E,,E,][E,,E,] [E,,E,][E,,E,] | z4 | z4 | z4 | B,, z B,,B,, | z4 | z4 | z4 | E, z B,, z | z4 | %18
 z4 |] %19

